icons/square/48/chrome-https___stackedit.io_editor.svg

<svg width="48" height="48" version="1.1" viewBox="0 0 48 48.000001" xmlns="http://www.w3.org/2000/svg">
 <g transform="translate(0 3.949e-5)">
  <path d="m1 43v0.25c0 2.216 1.784 4 4 4h38c2.216 0 4-1.784 4-4v-0.25c0 2.216-1.784 4-4 4h-38c-2.216 0-4-1.784-4-4zm0 0.5v0.5c0 2.216 1.784 4 4 4h38c2.216 0 4-1.784 4-4v-0.5c0 2.216-1.784 4-4 4h-38c-2.216 0-4-1.784-4-4z" style="opacity:.02"/>
  <path d="m1 43.25v0.25c0 2.216 1.784 4 4 4h38c2.216 0 4-1.784 4-4v-0.25c0 2.216-1.784 4-4 4h-38c-2.216 0-4-1.784-4-4z" style="opacity:.05"/>
  <path d="m1 43v0.25c0 2.216 1.784 4 4 4h38c2.216 0 4-1.784 4-4v-0.25c0 2.216-1.784 4-4 4h-38c-2.216 0-4-1.784-4-4z" style="opacity:.1"/>
 </g>
 <rect transform="rotate(-90)" x="-47" y="1" width="46" height="46" rx="4" style="fill:#ff8a00"/>
 <path d="m24 1v23l21.83 21.83c0.723-0.723 1.1699-1.7221 1.1699-2.8301v-38c0-2.216-1.784-4-4-4h-19z" style="fill-rule:evenodd;fill:#75b7fd"/>
 <path d="m5 1c-2.216 0-4 1.784-4 4v38c0 1.108 0.44692 2.1071 1.1699 2.8301l21.83-21.83v-23h-19z" style="fill-rule:evenodd;fill:#bbd500"/>
 <path d="m5 1c-1.108 0-2.1071 0.44692-2.8301 1.1699l21.83 21.83 21.83-21.83c-0.723-0.723-1.7221-1.1699-2.8301-1.1699h-38z" style="fill-rule:evenodd;fill:#ffe600"/>
 <g transform="translate(0 3.949e-5)">
  <g transform="translate(0 -1004.4)">
   <path d="m1 1043.4v4c0 2.216 1.784 4 4 4h38c2.216 0 4-1.784 4-4v-4c0 2.216-1.784 4-4 4h-38c-2.216 0-4-1.784-4-4z" style="opacity:.1"/>
  </g>
 </g>
 <path d="m15.75 12h16.5c2.071 0 3.75 1.679 3.75 3.75v16.5c0 2.071-1.679 3.75-3.75 3.75h-16.5c-2.071 0-3.75-1.679-3.75-3.75v-16.5c0-2.071 1.679-3.75 3.75-3.75z" style="opacity:.1"/>
 <path d="m15.75 11h16.5c2.071 0 3.75 1.679 3.75 3.75v16.5c0 2.071-1.679 3.75-3.75 3.75h-16.5c-2.071 0-3.75-1.679-3.75-3.75v-16.5c0-2.071 1.679-3.75 3.75-3.75z" style="fill:#fff"/>
 <path d="m18 15-0.469 3h-2.531v2h2.219l-0.469 3h-1.75v2h1.469l-0.469 3h2l0.469-3h2l-0.469 3h2l0.469-3h2.531v-2h-2.25l0.469-3h1.781v-2h-1.469l0.469-3h-2l-0.469 3h-2l0.469-3zm1.219 5h2l-0.469 3h-2z" style="opacity:.1"/>
 <path d="m16 27 2-13h2l-2 13z" style="fill:#737373"/>
 <path d="m20 27 2-13h2l-2 13z" style="fill:#737373"/>
 <rect x="15" y="17" width="10" height="2" style="fill:#737373"/>
 <rect x="15" y="22" width="10" height="2" style="fill:#737373"/>
</svg>

<svg width="48" height="48" viewBox="0 0 48 48.000001" xmlns="http://www.w3.org/2000/svg">
  <path d="M1 43v.25c0 2.216 1.784 4 4 4h38c2.216 0 4-1.784 4-4V43c0 2.216-1.784 4-4 4H5c-2.216 0-4-1.784-4-4zm0 .5v.5c0 2.216 1.784 4 4 4h38c2.216 0 4-1.784 4-4v-.5c0 2.216-1.784 4-4 4H5c-2.216 0-4-1.784-4-4z" opacity=".02"/>
  <path d="M1 43.25v.25c0 2.216 1.784 4 4 4h38c2.216 0 4-1.784 4-4v-.25c0 2.216-1.784 4-4 4H5c-2.216 0-4-1.784-4-4z" opacity=".05"/>
  <path d="M1 43v.25c0 2.216 1.784 4 4 4h38c2.216 0 4-1.784 4-4V43c0 2.216-1.784 4-4 4H5c-2.216 0-4-1.784-4-4z" opacity=".1"/>
  <rect transform="rotate(-90)" x="-47" y="1" width="46" height="46" rx="4" fill="#ff8a00"/>
  <path d="M24 1v23l21.83 21.83A3.986 3.986 0 0 0 47 43V5c0-2.216-1.784-4-4-4H24z" fill-rule="evenodd" fill="#75b7fd"/>
  <path d="M5 1C2.784 1 1 2.784 1 5v38c0 1.108.447 2.107 1.17 2.83L24 24V1H5z" fill-rule="evenodd" fill="#bbd500"/>
  <path d="M5 1a3.986 3.986 0 0 0-2.83 1.17L24 24 45.83 2.17A3.986 3.986 0 0 0 43 1H5z" fill-rule="evenodd" fill="#ffe600"/>
  <path d="M1 39v4c0 2.216 1.784 4 4 4h38c2.216 0 4-1.784 4-4v-4c0 2.216-1.784 4-4 4H5c-2.216 0-4-1.784-4-4zM15.75 12h16.5A3.75 3.75 0 0 1 36 15.75v16.5A3.75 3.75 0 0 1 32.25 36h-16.5A3.75 3.75 0 0 1 12 32.25v-16.5A3.75 3.75 0 0 1 15.75 12z" opacity=".1"/>
  <path d="M15.75 11h16.5A3.75 3.75 0 0 1 36 14.75v16.5A3.75 3.75 0 0 1 32.25 35h-16.5A3.75 3.75 0 0 1 12 31.25v-16.5A3.75 3.75 0 0 1 15.75 11z" fill="#fff"/>
  <path d="M18 15l-.469 3H15v2h2.219l-.469 3H15v2h1.469L16 28h2l.469-3h2L20 28h2l.469-3H25v-2h-2.25l.469-3H25v-2h-1.469L24 15h-2l-.469 3h-2L20 15zm1.219 5h2l-.469 3h-2z" opacity=".1"/>
  <path d="M16 27l2-13h2l-2 13zM20 27l2-13h2l-2 13z" fill="#737373"/>
  <path fill="#737373" d="M15 17h10v2H15zM15 22h10v2H15z"/>
</svg>
